assets/symbols/mulberry/yesterday.svg

<svg height="850.394" viewBox="0 0 850.394 850.394" width="850.394" xmlns="http://www.w3.org/2000/svg"><g fill="#fbed24"><path d="m238.09 429.82c28.35 0 51.32 22.97 51.32 51.31s-22.97 51.311-51.32 51.311c-28.33 0-51.3-22.971-51.3-51.311s22.97-51.31 51.3-51.31z"/><circle cx="608.87" cy="481.13" r="51.31"/></g><g fill="none"><g stroke="#231f20"><path d="m406.63 631.89h-335.27" stroke-width="21"/><path d="m289.41 481.13c0 28.34-22.97 51.311-51.32 51.311-28.33 0-51.3-22.971-51.3-51.311s22.97-51.31 51.3-51.31c28.35 0 51.32 22.97 51.32 51.31zm-51.71-60.65v-39.04m-31.14 46.64-21.57-32.55m-.78 56.52-35.37-16.52m121.1-8.08 21.56-32.54m.79 56.53 35.36-16.53m-59 99.71 21.58 32.54m.78-56.54 35.37 16.53m-121.1 8.1-21.57 32.52m-.78-56.52-35.37 16.52m29.38-46.03h-39.04m199.78 0h-39.03m-60.95 98.27v-39.03" stroke-width="14"/><path d="m777.4 631.89h-335.27" stroke-width="21"/><circle cx="608.87" cy="481.13" r="51.31" stroke-width="14"/><path d="m608.47 420.48v-39.04m-31.14 46.64-21.57-32.55m-.78 56.52-35.37-16.52m121.1-8.08 21.56-32.54m.79 56.53 35.36-16.53m-59 99.71 21.57 32.54m.79-56.54 35.37 16.53m-121.1 8.1-21.56 32.52m-.8-56.52-35.36 16.52m29.38-46.03h-39.04m199.78 0h-39.03m-60.95 98.27v-39.03" stroke-width="14"/><g stroke-width="21"><path d="m303.63 245.44 31.73 95 90.25-43.59"/><path d="m542.17 301.29c-10.24-42.6-52.77-78.14-96.6-78.14-55.4 0-103.76 45.26-103.76 109.87"/></g></g><path d="m0 0h850.394v850.394h-850.394z"/></g></svg>

<svg xmlns="http://www.w3.org/2000/svg" width="850.394" height="850.394" viewBox="0 0 850.394 850.394" overflow="visible"><g fill="#fbed24"><path d="M238.09 429.82c28.35 0 51.32 22.97 51.32 51.31s-22.97 51.311-51.32 51.311c-28.33 0-51.3-22.971-51.3-51.311s22.97-51.31 51.3-51.31z"/><circle cx="608.87" cy="481.13" r="51.31"/></g><g fill="none" stroke="#231f20"><path stroke-width="21" d="M406.63 631.89H71.36"/><path d="M289.41 481.13c0 28.34-22.97 51.311-51.32 51.311-28.33 0-51.3-22.971-51.3-51.311s22.97-51.31 51.3-51.31c28.35 0 51.32 22.97 51.32 51.31zM237.7 420.48v-39.04M206.56 428.08l-21.57-32.55M184.21 452.05l-35.37-16.52M269.94 427.45l21.56-32.54M292.29 451.44l35.36-16.53M268.65 534.62l21.58 32.54M291.01 510.62l35.37 16.53M205.28 535.25l-21.57 32.52M182.93 511.25l-35.37 16.52M176.94 481.74H137.9M337.68 481.74h-39.03M237.7 580.01v-39.03" stroke-width="14"/><path stroke-width="21" d="M777.4 631.89H442.13"/><circle cx="608.87" cy="481.13" r="51.31" stroke-width="14"/><path stroke-width="14" d="M608.47 420.48v-39.04M577.33 428.08l-21.57-32.55M554.98 452.05l-35.37-16.52M640.71 427.45l21.56-32.54M663.06 451.44l35.36-16.53M639.42 534.62l21.57 32.54M661.78 510.62l35.37 16.53M576.05 535.25l-21.56 32.52M553.69 511.25l-35.36 16.52M547.71 481.74h-39.04M708.45 481.74h-39.03M608.47 580.01v-39.03"/><path stroke-width="21" d="M303.63 245.44l31.73 95 90.25-43.59"/><path d="M542.17 301.29c-10.24-42.6-52.77-78.14-96.6-78.14-55.4 0-103.76 45.26-103.76 109.87" stroke-width="21"/></g><path fill="none" d="M0 0h850.394v850.394H0z"/></svg>
